Yaru++/apps/scalable/steam.svg

<svg height="256" width="256" xmlns="http://www.w3.org/2000/svg" xmlns:xlink="http://www.w3.org/1999/xlink">
  <filter id="filter11191" color-interpolation-filters="sRGB" height="1.024" width="1.024" x="-.01" y="-.01">
    <feGaussianBlur stdDeviation="1.12"/>
  </filter>
  <filter id="filter11210" color-interpolation-filters="sRGB" height="1.096" width="1.096" x="-.05" y="-.05">
    <feGaussianBlur stdDeviation="4.48"/>
  </filter>
  <circle cx="128.752" cy="127.248" filter="url(#filter11210)" opacity=".1" r="112"/>
  <circle cx="128.752" cy="125.248" filter="url(#filter11191)" opacity=".1" r="112"/>
  <circle cx="128.752" cy="123.248" opacity=".1" r="114"/>
  <circle cx="128.752" cy="123.248" fill="#112639" r="112"/>
  <path d="m16.751953 123.24805c.219543 2.63999.266428 5.98571.402344 8.91797a112 112 0 0 0 1.226562 10.11914 112 112 0 0 0 2.453125 10.92187 112 112 0 0 0 3.529297 10.625 112 112 0 0 0 4.574219 10.21875 112 112 0 0 0 5.570312 9.71094 112 112 0 0 0 6.511719 9.10742 112 112 0 0 0 7.388672 8.41016 112 112 0 0 0 8.191406 7.63086 112 112 0 0 0 8.91211 6.77539 112 112 0 0 0 9.544922 5.85156 112 112 0 0 0 10.080078 4.86914 112 112 0 0 0 10.517578 3.83984 112 112 0 0 0 10.847653 2.76953 112 112 0 0 0 11.06836 1.67188 112 112 0 0 0 11.05664.55469c1.00274-.00122 2.05955-.08622 3.07227-.09961a112 112 0 0 0 4.97461-.17578 112 112 0 0 0 11.11523-1.34766 112 112 0 0 0 10.92188-2.45312 112 112 0 0 0 10.625-3.5293 112 112 0 0 0 10.21875-4.57422 112 112 0 0 0 9.71093-5.57031 112 112 0 0 0 9.10743-6.51172 112 112 0 0 0 8.41015-7.38867 112 112 0 0 0 7.63086-8.19141 112 112 0 0 0 6.77539-8.91211 112 112 0 0 0 5.85157-9.54492 112 112 0 0 0 4.86914-10.08008 112 112 0 0 0 3.83984-10.51758 112 112 0 0 0 2.76953-10.84765 112 112 0 0 0 1.63867-10.83008c-.1976-4.0827-.28991-8.00416-.00586-11.41992z" fill="#fff" opacity=".1"/>
  <path d="m128.752 11.248006a112 112 0 0 0 -112.000001 111.999994 112 112 0 0 0 .04102 1.16992 112 112 0 0 1 111.958981-111.169914 112 112 0 0 1 111.95898 110.830074 112 112 0 0 0 .041-.83008 112 112 0 0 0 -112-111.999994z" fill="#fff" opacity=".3"/>
  <path d="m128.752 235.248a112 112 0 0 1 -112.000001-112 112 112 0 0 1 .04102-1.16992 112 112 0 0 0 111.958981 111.16992 112 112 0 0 0 111.95898-110.83008 112 112 0 0 1 .041.83008 112 112 0 0 1 -112 112z" opacity=".2"/>
  <path d="m110.57718 99.549112c0 .16754 0 .33491.009.492118l-24.371917 35.38113c-3.948-.17933-7.90968.51263-11.66618 2.05903-1.65597.67496-3.20764 1.50371-4.66356 2.46059l-53.516771-22.01708c.00042 0-1.23835 20.35961 3.92236 35.53322l37.833421 15.60078c1.89963 8.48388 7.72331 15.92544 16.31519 19.50524 14.05737 5.86952 30.265717-.82017 36.113337-14.87457 1.52175-3.67378 2.23133-7.52698 2.12874-11.37165l34.87199-24.90487c.28212.009.5728.0165.85492.0165 20.86849 0 37.83-17.00195 37.83-37.881028 0-20.880779-16.96151-37.867349-37.83-37.867349-20.85993 0-37.83001 16.98657-37.83001 37.867349zm-5.84763 71.696978c-4.52592 10.85903-17.012787 16.01087-27.866807 11.49125-5.00723-2.08466-8.78765-5.90369-10.96856-10.45747l12.31505 5.10059c8.00458 3.33203 17.18807-.46136 20.515401-8.45827 3.337596-8.00544-.44882-17.19845-8.449111-20.53048l-12.73055-5.27147c4.91234-1.86252 10.49666-1.93086 15.7142.23923 5.260301 2.18719 9.341637 6.30525 11.504597 11.56816 2.16293 5.26292 2.15438 11.07262-.0342 16.31846m43.67761-46.46061c-13.89236 0-25.20289-11.32039-25.20289-25.236368 0-13.904849 11.31053-25.228679 25.20289-25.228679 13.90093 0 25.21146 11.32383 25.21146 25.228679 0 13.915978-11.31053 25.236368-25.21146 25.236368m-18.88508-25.274798c0-10.468609 8.48076-18.959319 18.92783-18.959319 10.4556 0 18.93637 8.49071 18.93637 18.959319 0 10.469428-8.48077 18.952448-18.93637 18.952448-10.44707 0-18.92783-8.48302-18.92783-18.952448z" fill="#f6f5f4"/>
</svg>

<svg xmlns="http://www.w3.org/2000/svg" xmlns:osb="http://www.openswatchbook.org/uri/2009/osb" xmlns:xlink="http://www.w3.org/1999/xlink" width="256" height="256" version="1.1">
 <defs>
  <linearGradient id="linearGradient5606" osb:paint="solid">
   <stop id="stop5608" offset="0" style="stop-color:#000000"/>
  </linearGradient>
  <linearGradient id="linearGradient4526" osb:paint="solid">
   <stop id="stop4528" offset="0" style="stop-color:#ffffff"/>
  </linearGradient>
  <linearGradient id="linearGradient3600-4" osb:paint="gradient">
   <stop id="stop3602-7" offset="0" style="stop-color:#f4f4f4"/>
   <stop id="stop3604-6" offset="1" style="stop-color:#dbdbdb"/>
  </linearGradient>
  <clipPath id="clipPath1094" clipPathUnits="userSpaceOnUse">
   <path style="fill:url(#linearGradient1098)" d="M 188.96875,43.999998 C 261.6174,43.999998 272,54.356613 272,126.9375 v 58.125 C 272,257.64309 261.6174,268 188.96875,268 h -73.9375 C 42.3826,268 32,257.64309 32,185.0625 v -58.125 C 32,54.356613 42.3826,43.999998 115.03125,43.999998 Z"/>
  </clipPath>
  <clipPath id="clipPath1100" clipPathUnits="userSpaceOnUse">
   <path style="fill:url(#linearGradient1104)" d="M 188.96875,44 C 261.6174,44 272,54.356615 272,126.9375 v 58.125 C 272,257.64309 261.6174,268 188.96875,268 h -73.9375 C 42.3826,268 32,257.64309 32,185.0625 v -58.125 C 32,54.356615 42.3826,44 115.03125,44 Z"/>
  </clipPath>
  <filter style="color-interpolation-filters:sRGB" id="filter11191" width="1.024" height="1.024" x="-.01" y="-.01">
   <feGaussianBlur id="feGaussianBlur11193" stdDeviation="1.12"/>
  </filter>
  <filter style="color-interpolation-filters:sRGB" id="filter11210" width="1.096" height="1.096" x="-.05" y="-.05">
   <feGaussianBlur id="feGaussianBlur11212" stdDeviation="4.48"/>
  </filter>
  <linearGradient id="linearGradient1490" x1="33.076" x2="91.624" y1="210.425" y2="262.805" gradientTransform="matrix(2.1947377,0,0,2.1923444,-10.836741,-394.1216)" gradientUnits="userSpaceOnUse" xlink:href="#linearGradient1488"/>
  <linearGradient id="linearGradient1488">
   <stop style="stop-color:#ff8b00" id="stop1484" offset="0"/>
   <stop style="stop-color:#ffda2c" id="stop1486" offset="1"/>
  </linearGradient>
  <filter id="filter4460" width="1.026" height="1.023" x="-.01" y="-.01" style="color-interpolation-filters:sRGB">
   <feGaussianBlur id="feGaussianBlur7" stdDeviation="1.133"/>
  </filter>
  <linearGradient id="linearGradient4413" x1="256" x2="256" y1="138" y2="375" gradientTransform="matrix(0.43877818,0,0,0.43877818,-24.464695,-1.3582757)" gradientUnits="userSpaceOnUse">
   <stop style="stop-color:#000000;stop-opacity:0" id="stop10" offset="0"/>
   <stop style="stop-color:#000000" id="stop12" offset=".505"/>
   <stop style="stop-color:#000000;stop-opacity:0" id="stop14" offset="1"/>
  </linearGradient>
  <linearGradient id="w" x1="123.641" x2="146.527" y1="131.028" y2="174.708" gradientTransform="matrix(1.4482347,0,0,1.2146937,246.49349,46.727269)" gradientUnits="userSpaceOnUse">
   <stop id="stop912" offset="0" stop-color="#eff7fc"/>
   <stop id="stop914" offset="1" stop-color="#fff"/>
  </linearGradient>
 </defs>
 <circle style="opacity:0.1;filter:url(#filter11210)" cx="128.752" cy="127.248" r="112"/>
 <circle style="opacity:0.1;filter:url(#filter11191)" cx="128.752" cy="125.248" r="112"/>
 <circle style="opacity:0.1" cx="128.752" cy="123.248" r="114"/>
 <circle style="fill:#112639" cx="128.752" cy="123.248" r="112"/>
 <path style="opacity:0.1;fill:#ffffff" d="M 16.751953 123.24805 C 16.971496 125.88804 17.018381 129.23376 17.154297 132.16602 A 112 112 0 0 0 18.380859 142.28516 A 112 112 0 0 0 20.833984 153.20703 A 112 112 0 0 0 24.363281 163.83203 A 112 112 0 0 0 28.9375 174.05078 A 112 112 0 0 0 34.507812 183.76172 A 112 112 0 0 0 41.019531 192.86914 A 112 112 0 0 0 48.408203 201.2793 A 112 112 0 0 0 56.599609 208.91016 A 112 112 0 0 0 65.511719 215.68555 A 112 112 0 0 0 75.056641 221.53711 A 112 112 0 0 0 85.136719 226.40625 A 112 112 0 0 0 95.654297 230.24609 A 112 112 0 0 0 106.50195 233.01562 A 112 112 0 0 0 117.57031 234.6875 A 112 112 0 0 0 128.62695 235.24219 C 129.62969 235.24097 130.6865 235.15597 131.69922 235.14258 A 112 112 0 0 0 136.67383 234.9668 A 112 112 0 0 0 147.78906 233.61914 A 112 112 0 0 0 158.71094 231.16602 A 112 112 0 0 0 169.33594 227.63672 A 112 112 0 0 0 179.55469 223.0625 A 112 112 0 0 0 189.26562 217.49219 A 112 112 0 0 0 198.37305 210.98047 A 112 112 0 0 0 206.7832 203.5918 A 112 112 0 0 0 214.41406 195.40039 A 112 112 0 0 0 221.18945 186.48828 A 112 112 0 0 0 227.04102 176.94336 A 112 112 0 0 0 231.91016 166.86328 A 112 112 0 0 0 235.75 156.3457 A 112 112 0 0 0 238.51953 145.49805 A 112 112 0 0 0 240.1582 134.66797 C 239.9606 130.58527 239.86829 126.66381 240.15234 123.24805 L 16.751953 123.24805 z"/>
 <path style="opacity:0.3;fill:#ffffff" d="M 128.752,11.248006 A 112,112 0 0 0 16.751999,123.248 112,112 0 0 0 16.793019,124.41792 112,112 0 0 1 128.752,13.248006 112,112 0 0 1 240.71098,124.07808 a 112,112 0 0 0 0.041,-0.83008 112,112 0 0 0 -112,-111.999994 z"/>
 <path style="opacity:0.2" d="m 128.752,235.248 a 112,112 0 0 1 -112.000001,-112 112,112 0 0 1 0.04102,-1.16992 A 112,112 0 0 0 128.752,233.248 112,112 0 0 0 240.71098,122.41792 a 112,112 0 0 1 0.041,0.83008 112,112 0 0 1 -112,112 z"/>
 <path style="fill:#f6f5f4" d="m 110.57718,99.549112 c 0,0.16754 0,0.33491 0.009,0.492118 l -24.371917,35.38113 c -3.948,-0.17933 -7.90968,0.51263 -11.66618,2.05903 -1.65597,0.67496 -3.20764,1.50371 -4.66356,2.46059 L 16.367752,117.9249 c 4.2e-4,0 -1.23835,20.35961 3.92236,35.53322 l 37.833421,15.60078 c 1.89963,8.48388 7.72331,15.92544 16.31519,19.50524 14.05737,5.86952 30.265717,-0.82017 36.113337,-14.87457 1.52175,-3.67378 2.23133,-7.52698 2.12874,-11.37165 l 34.87199,-24.90487 c 0.28212,0.009 0.5728,0.0165 0.85492,0.0165 20.86849,0 37.83,-17.00195 37.83,-37.881028 0,-20.880779 -16.96151,-37.867349 -37.83,-37.867349 -20.85993,0 -37.83001,16.98657 -37.83001,37.867349 z m -5.84763,71.696978 c -4.52592,10.85903 -17.012787,16.01087 -27.866807,11.49125 -5.00723,-2.08466 -8.78765,-5.90369 -10.96856,-10.45747 l 12.31505,5.10059 c 8.00458,3.33203 17.18807,-0.46136 20.515401,-8.45827 3.337596,-8.00544 -0.44882,-17.19845 -8.449111,-20.53048 l -12.73055,-5.27147 c 4.91234,-1.86252 10.49666,-1.93086 15.7142,0.23923 5.260301,2.18719 9.341637,6.30525 11.504597,11.56816 2.16293,5.26292 2.15438,11.07262 -0.0342,16.31846 m 43.67761,-46.46061 c -13.89236,0 -25.20289,-11.32039 -25.20289,-25.236368 0,-13.904849 11.31053,-25.228679 25.20289,-25.228679 13.90093,0 25.21146,11.32383 25.21146,25.228679 0,13.915978 -11.31053,25.236368 -25.21146,25.236368 M 129.5221,99.510682 c 0,-10.468609 8.48076,-18.959319 18.92783,-18.959319 10.4556,0 18.93637,8.49071 18.93637,18.959319 0,10.469428 -8.48077,18.952448 -18.93637,18.952448 -10.44707,0 -18.92783,-8.48302 -18.92783,-18.952448 z"/>
</svg>
